X:1
T:Vals i Gm
O:Sweden, Norway
R:waltz
Z:2002 John Chambers <jc:trillian.mit.edu>
S:Memory (several Wisconsin/Minnesota players)
M:3/4
L:1/8
K:Gdor
D^F \
| "Gm"G2 G^F GA | B2 BA Bc | "Dm"d2 dc de | f2 fe gf \
| "D7"d2 dc Ac | "Gm"B2 A2 G2 | "D7"^FG A2 F2 |1,3 D4 \
:|2,4 "D7"^FG A2 F2 | "Gm"G4 :|
|: Bd \
| "Gm(Bb)"d2 c2 B2 | "D7(F)"A3 [AD] ^FA | "D7"c2 B2 A2 | "Gm"G3 [^FD] GA \
| "D7"B2 A2 ^F2 | D2 A2 ^F2 |1,3 "Gm"G2 d2 "A7"^c2 | "D7"d4 \
:|2,4 "Gm"G3 A G^F | G4 :|

